!!!OTL: HIMMELSAU LICHT UND BLAU
!!!ARE: Europa, Mitteleuropa, Deutschland
!!!SCT: E2041
!!!YEM: Copyright 1995, estate of Helmut Schaffrath.
**kern
*ICvox
*Ivox
*M2/4
*k[f#c#g#]
*A:
=1
{4a
4a
=2
4b
4r
=3
4cc#
8ee
8dd
=4
2b}
=5
{4ee
4ee
=6
4.ee
8dd
=7
4cc#
4b
=8
4a
4r}
=9
{4a
4a
=10
4b
4r
=11
4b
4b
=12
2cc#}
=13
{4cc#
4cc#
=14
4ee
8dd
8cc#
=15
4b
8cc#
8b
=16
4a
4r}
==
!!!AGN: geistlich, Wallfahrts - Lied
!!!ONB: ESAC (Essen Associative Code) Database: ERK3
!!!AMT: simple duple
!!!AIN: vox
!!!EED: Helmut Schaffrath
!!!EEV: 1.0
*-
